assets/img/buttons/button-image.svg

<svg width="28" height="30" viewBox="0 0 28 30" fill="none" xmlns="http://www.w3.org/2000/svg">
<path d="M0.703903 30.0002C0.234612 29.7659 0 29.18 0 28.5941C0 28.4769 0 28.2425 0 28.1253C0 19.4538 0 10.7822 0 2.2279C0 1.75916 0.117306 1.40766 0.234612 0.938916C0.351986 0.704512 0.586597 0.470176 0.821277 0.23584C5.86604 5.27467 10.7935 10.3135 15.7209 15.3524C10.6762 20.0397 5.74873 24.9614 0.703903 30.0002Z" fill="url(#paint0_linear_6934_2201)"/>
<path d="M20.65 10.1949C19.2421 11.6011 17.7169 13.0073 16.3091 14.5307C11.6163 9.72616 6.80612 4.92167 2.11328 0.117168C2.11328 0.117168 2.11328 0 2.23059 0C8.3313 3.39828 14.4319 6.79662 20.65 10.1949Z" fill="url(#paint1_linear_6934_2201)"/>
<path d="M2.11328 29.9984C6.80612 25.3111 11.6163 20.6239 16.3091 15.9365C17.5996 17.2255 19.0075 18.5146 20.5327 19.9207C14.432 23.3191 8.3313 26.7173 2.23059 29.9984H2.11328Z" fill="url(#paint2_linear_6934_2201)"/>
<path d="M21.3488 19.4532C19.8236 18.0471 18.4158 16.6409 16.8906 15.2347C18.4158 13.7113 19.941 12.1879 21.4661 10.6646C21.9354 10.8989 22.4047 11.1333 22.874 11.4848C24.0472 12.1879 25.3377 12.7738 26.5109 13.4769C26.8629 13.5941 27.0975 13.8285 27.3321 14.18C27.8014 14.7659 27.8014 15.3519 27.3321 15.9378C27.0975 16.1721 26.8629 16.4065 26.5109 16.5237C24.8684 17.5783 23.1086 18.5158 21.3488 19.4532Z" fill="url(#paint3_linear_6934_2201)"/>
<defs>
<linearGradient id="paint0_linear_6934_2201" x1="3.66822" y1="2.71621" x2="20.7301" y2="14.2312" gradientUnits="userSpaceOnUse">
<stop stop-color="#FF00F5"/>
<stop offset="1" stop-color="#00F0FF"/>
</linearGradient>
<linearGradient id="paint1_linear_6934_2201" x1="6.43851" y1="1.21089" x2="14.4452" y2="14.2622" gradientUnits="userSpaceOnUse">
<stop stop-color="#FF00F5"/>
<stop offset="1" stop-color="#00F0FF"/>
</linearGradient>
<linearGradient id="paint2_linear_6934_2201" x1="6.41114" y1="17.1084" x2="14.0652" y2="29.9191" gradientUnits="userSpaceOnUse">
<stop stop-color="#FF00F5"/>
<stop offset="1" stop-color="#00F0FF"/>
</linearGradient>
<linearGradient id="paint3_linear_6934_2201" x1="19.4091" y1="11.3969" x2="24.3331" y2="19.124" gradientUnits="userSpaceOnUse">
<stop stop-color="#FF00F5"/>
<stop offset="1" stop-color="#00F0FF"/>
</linearGradient>
</defs>
</svg>

<svg xmlns="http://www.w3.org/2000/svg" width="28" height="30" fill="none"><path fill="url(#a)" d="M.704 30C.234 29.766 0 29.18 0 28.594V2.228c0-.469.117-.82.235-1.29C.352.706.587.47.82.237c5.045 5.039 9.973 10.078 14.9 15.116C10.676 20.04 5.749 24.962.704 30Z"/><path fill="url(#b)" d="M20.65 10.195c-1.408 1.406-2.933 2.812-4.34 4.336C11.615 9.726 6.805 4.92 2.112.117c0 0 0-.117.118-.117 6.1 3.398 12.2 6.797 18.419 10.195Z"/><path fill="url(#c)" d="M2.113 29.998c4.693-4.687 9.503-9.374 14.196-14.062 1.29 1.29 2.698 2.579 4.224 3.985C14.432 23.319 8.33 26.717 2.23 29.998h-.118Z"/><path fill="url(#d)" d="M21.349 19.453c-1.525-1.406-2.933-2.812-4.458-4.218l4.575-4.57c.47.234.939.468 1.408.82 1.173.703 2.464 1.289 3.637 1.992.352.117.587.351.821.703.47.586.47 1.172 0 1.758-.235.234-.47.469-.821.586-1.643 1.054-3.402 1.992-5.162 2.93Z"/><defs><linearGradient id="a" x1="3.668" x2="20.73" y1="2.716" y2="14.231" gradientUnits="userSpaceOnUse"><stop stop-color="#FF00F5"/><stop offset="1" stop-color="#00F0FF"/></linearGradient><linearGradient id="b" x1="6.439" x2="14.445" y1="1.211" y2="14.262" gradientUnits="userSpaceOnUse"><stop stop-color="#FF00F5"/><stop offset="1" stop-color="#00F0FF"/></linearGradient><linearGradient id="c" x1="6.411" x2="14.065" y1="17.108" y2="29.919" gradientUnits="userSpaceOnUse"><stop stop-color="#FF00F5"/><stop offset="1" stop-color="#00F0FF"/></linearGradient><linearGradient id="d" x1="19.409" x2="24.333" y1="11.397" y2="19.124" gradientUnits="userSpaceOnUse"><stop stop-color="#FF00F5"/><stop offset="1" stop-color="#00F0FF"/></linearGradient></defs></svg>
